X: 2073
T: TULLYMET HALL
C:
Q: "Reel."
R: Reel.
%R: reel
B: James Kerr "Merry Melodies" v.2 p.10 #73
Z: 2016 John Chambers <jc:trillian.mit.edu>
M: C
L: 1/8
K: Am
ue |\
cAeA e2(dg) | BGdG Bdde |\
cAec dgde | cdBd cAA ::\
u^g |:\
a^gae cAec |
^fdgd BGG \
[1 ^g | a^gae cAec | ^fd^ge aAAg :|\
[2 B | cA^GB AcBd | cedf eAA |]
